icons/signal-wifi-off-line.svg

<svg xmlns="http://www.w3.org/2000/svg" width="24" height="24" fill="none"><g clip-path="url(#a)"><g><path fill="#121212" d="M2.808 1.39301L20.485 19.071L19.071 20.485L15.388 16.803L12 21L0.690002 6.99701C1.604 6.25701 2.592 5.60601 3.64 5.05501L1.394 2.80801L2.809 1.39301H2.808ZM3.579 7.39201L12 17.817L13.967 15.38L5.132 6.54401C4.6 6.79801 4.082 7.08001 3.58 7.39201H3.579ZM12 3.00001C16.284 3.00001 20.22 4.497 23.31 6.99601L17.903 13.689L16.481 12.267L20.42 7.39101C17.922 5.84101 15.027 5.00001 12 5.00001C11.127 5.00001 10.265 5.07 9.42 5.20701L7.725 3.51001C9.094 3.17701 10.527 3.00001 12 3.00001Z"/></g></g><defs><clipPath id="a"><rect width="24" height="24" fill="white"/></clipPath></defs></svg>

<svg width="24" height="24" fill="none" xmlns="http://www.w3.org/2000/svg"><g clip-path="url(#a)"><path d="m2.808 1.393 17.677 17.678-1.414 1.414-3.683-3.682L12 21 .69 6.997a18 18 0 0 1 2.95-1.942L1.394 2.808l1.415-1.415h-.001Zm.771 5.999L12 17.817l1.967-2.437-8.835-8.836c-.532.254-1.05.536-1.552.848h-.001ZM12 3c4.284 0 8.22 1.497 11.31 3.996l-5.407 6.693-1.422-1.422 3.939-4.876A15.92 15.92 0 0 0 12 5c-.873 0-1.735.07-2.58.207L7.725 3.51A18.077 18.077 0 0 1 12 3Z" /></g><defs><clipPath id="a"><path fill="#fff" d="M0 0h24v24H0z"/></clipPath></defs></svg>
